icons/HSB-Collections/48x48/apps/tomato.svg

<svg xmlns="http://www.w3.org/2000/svg" width="48" height="48" version="1">
 <circle fill="#e74c3c" cx="24" cy="24" r="20"/>
 <path fill-rule="evenodd" opacity=".2" d="m19.463 2.0014c-0.13664 0.00578-0.2757 0.02978-0.41335 0.073885-0.73414 0.23525-1.1414 0.94825-0.91317 1.5985l0.57281 1.6321c-8.302 0.8004-12.709 9.5601-12.709 9.5601s2.778 0.52245 9.4785-3.1785c1.8617-1.0283 2.9349-2.1337 3.5475-3.1339-0.127 1.0318-0.108 2.3544 0.187 4.0414 0.743 4.237 3.844 7.405 3.844 7.405s3.7537-6.2332-0.27146-12.343c5.936 4.033 15.214 2.2804 15.214 2.2804s-4.1561-3.9429-8.5685-4.9257c-3.2926-0.73337-6.3237-0.25431-7.8996 0.11792-0.000927-0.12043-0.021-0.24226-0.063-0.36182l-0.682-1.9434c-0.186-0.5284-0.732-0.8479-1.324-0.823z"/>
 <path fill="#fff" opacity=".2" d="m24 4c-11.079 0-19.998 8.92-19.998 20 0 0.16772-0.004 0.33329 0 0.5 0.2642-10.846 9.087-19.5 19.998-19.5s19.734 8.6536 19.998 19.5c0.004-0.16671 0-0.33228 0-0.5 0-11.08-8.919-20-19.998-20z"/>
 <path opacity=".2" d="m43.979 24.418a20 20 0 0 1 -19.979 19.582 20 20 0 0 1 -19.978 -19.418 20 20 0 0 0 -0.022 0.418 20 20 0 0 0 20 20 20 20 0 0 0 20 -20 20 20 0 0 0 -0.021 -0.582z"/>
 <path fill="#a6ef4d" fill-rule="evenodd" d="m19.463 1.0014c-0.13664 0.00578-0.2757 0.02978-0.41335 0.073885-0.73414 0.23525-1.1414 0.94825-0.91317 1.5985l0.57281 1.6321c-8.302 0.8004-12.709 9.5601-12.709 9.5601s2.778 0.52245 9.4785-3.1785c1.862-1.0287 2.935-2.1341 3.548-3.1343-0.127 1.0317-0.108 2.3544 0.187 4.0413 0.743 4.237 3.844 7.405 3.844 7.405s3.7537-6.2332-0.27146-12.343c5.936 4.033 15.214 2.2804 15.214 2.2804s-4.1561-3.9429-8.5685-4.9257c-3.2926-0.73337-6.3237-0.25431-7.8996 0.11792-0.000927-0.12043-0.021-0.24226-0.063-0.36182l-0.682-1.9434c-0.186-0.5284-0.732-0.84793-1.324-0.823z"/>
 <path fill="#fff" fill-rule="evenodd" opacity=".1" d="m19.463 1.002c-0.13664 0.00578-0.27641 0.030114-0.41406 0.074219-0.73414 0.23525-1.1404 0.94738-0.91211 1.5977l0.05078 0.14453c0.1532-0.33281 0.45358-0.61153 0.86133-0.74219 0.13765-0.044105 0.27742-0.068439 0.41406-0.074219 0.5921-0.02489 1.1388 0.29391 1.3242 0.82227l0.68164 1.9434c0.042 0.11955 0.06157 0.2409 0.0625 0.36133 1.576-0.37222 4.6078-0.85055 7.9004-0.11719 3.1178 0.69444 6.0765 2.8475 7.5625 4.0625 0.437-0.0605 1.005-0.1368 1.005-0.1368s-4.156-3.943-8.568-4.9258c-3.293-0.7333-6.325-0.255-7.901 0.1172-0.001-0.1204-0.02-0.2418-0.062-0.3613l-0.682-1.9434c-0.185-0.5283-0.732-0.84714-1.324-0.8222zm-1.086 3.3574c-8.082 1.0021-12.377 9.5056-12.377 9.5056s0.18902 0.03457 0.57227 0.02344c1.3923-2.266 5.4927-7.9408 12.137-8.5814l-0.332-0.9472zm4.4082 3.2988c1.2862 1.9523 1.7737 3.9135 1.8477 5.6836 0.06851-1.582-0.18021-3.3696-1.0293-5.1934-0.27602-0.15708-0.55444-0.31095-0.81836-0.49023zm-3.7598 0.89648c-0.01796 0.029314-0.0457 0.060353-0.06445 0.089844-0.0038 0.22929-0.0082 0.45913 0.002 0.71094 0.01178-0.28446 0.03189-0.55137 0.0625-0.80078z"/>
</svg>

<svg xmlns="http://www.w3.org/2000/svg" width="48" height="48" version="1">
 <circle style="opacity:0.2" cx="24" cy="25" r="20"/>
 <circle fill="#e74c3c" cx="24" cy="24" r="20"/>
 <path style="fill:#ffffff;opacity:0.1" d="M 24 4 A 20 20 0 0 0 4 24 A 20 20 0 0 0 4.0352 24.5 A 20 20 0 0 1 24 5 A 20 20 0 0 1 43.982 24.25 A 20 20 0 0 0 44 24 A 20 20 0 0 0 24 4 z"/>
 <path style="opacity:0.2" d="M 19.05,2.07 C 18.32,2.31 17.91,3.02 18.14,3.67 L 18.71,5.3 C 10.41,6.1 6,14.86 6,14.86 6,14.86 8.78,15.38 15.48,11.68 17.34,10.65 18.42,9.55 19.03,8.55 18.9,9.58 18.92,10.9 19.22,12.59 19.96,16.83 23.06,20 23.06,20 23.06,20 26.81,13.77 22.79,7.66 28.73,11.69 38,9.94 38,9.94 38,9.94 33.84,6 29.43,5.01 26.14,4.28 23.11,4.63 21.53,5 L 20.79,2.83 C 20.6,2.3 20.04,2 19.69,2 19.34,2 19.18,2.03 19.05,2.07 Z"/>
 <path fill="#a6ef4d" d="M 19.05,1.07 C 18.32,1.31 17.91,2.02 18.14,2.67 L 18.71,4.3 C 10.41,5.1 6,13.86 6,13.86 6,13.86 8.78,14.38 15.48,10.68 17.34,9.65 18.42,8.55 19.03,7.55 18.9,8.58 18.92,9.9 19.22,11.59 19.96,15.83 23.06,19 23.06,19 23.06,19 26.81,12.77 22.79,6.66 28.73,10.69 38,8.94 38,8.94 38,8.94 33.84,5 29.43,4.01 26.14,3.28 23.11,3.63 21.53,4 L 20.79,1.83 C 20.6,1.3 20.04,1 19.69,1 19.34,1 19.18,1.03 19.05,1.07 Z"/>
 <path style="fill:#ffffff;opacity:0.2" d="M 19.689,1 C 19.339,1 19.181,1.0303 19.051,1.0703 18.321,1.3103 17.911,2.0199 18.141,2.6699 L 18.191,2.8145 C 18.345,2.4829 18.646,2.2033 19.051,2.0703 19.181,2.0303 19.339,2 19.689,2 20.039,2 20.599,2.3001 20.789,2.8301 L 21.529,5 C 23.109,4.63 26.14,4.2798 29.43,5.0098 32.55,5.7103 35.515,7.8685 37,9.082 37.584,9.0072 38,8.9395 38,8.9395 38,8.9395 33.84,4.9998 29.43,4.0098 26.14,3.2798 23.109,3.63 21.529,4 L 20.789,1.8301 C 20.599,1.3001 20.039,1 19.689,1 Z M 18.377,4.3438 C 10.294,5.3434 6,13.859 6,13.859 6,13.859 6.1837,13.892 6.5645,13.881 7.9881,11.58 12.118,5.9362 18.711,5.3008 Z M 22.789,7.6602 C 24.071,9.6093 24.562,11.57 24.637,13.338 24.704,11.765 24.467,9.9887 23.629,8.1758 23.343,8.0144 23.062,7.8451 22.789,7.6602 Z"/>
</svg>
